media/images/fav.svg

<svg width="21" height="20" viewBox="0 0 21 20" fill="none" xmlns="http://www.w3.org/2000/svg">
<path d="M7.33322 17.4368L7.33334 17.4367L7.33035 17.4339C5.21294 15.5055 3.3914 13.8401 2.12313 12.2021L2.12311 12.2021C0.705137 10.3735 0.05 8.64527 0.05 6.75741C0.05 4.91928 0.637302 3.2277 1.70311 1.99093L1.70315 1.99088C2.78083 0.737075 4.26009 0.05 5.86523 0.05C7.06711 0.05 8.16332 0.453921 9.13091 1.25907L9.13097 1.25912C9.61915 1.66414 10.0631 2.16104 10.4544 2.74145L10.4959 2.80294L10.5374 2.74145C10.9287 2.16105 11.3726 1.66417 11.8608 1.25915C12.8367 0.453889 13.9329 0.05 15.1348 0.05C16.7399 0.05 18.2192 0.737075 19.2968 1.99088L19.2969 1.99093C20.3627 3.2277 20.95 4.91928 20.95 6.75741C20.95 8.64527 20.2949 10.3735 18.8769 12.2021L18.8769 12.2021C17.6086 13.8401 15.7871 15.5055 13.6697 17.4339L13.6696 17.434C13.6196 17.4797 13.569 17.5258 13.518 17.5723C12.8339 18.1964 12.0683 18.8947 11.2778 19.6387C11.0613 19.8409 10.7864 19.95 10.5 19.95C10.2136 19.95 9.93861 19.8409 9.72206 19.6386C8.87337 18.8442 8.05749 18.098 7.33596 17.4397L7.33322 17.4368ZM8.06405 16.5083L8.06393 16.5084L8.06687 16.5111C8.14371 16.5813 8.2216 16.6524 8.30047 16.7244C8.96687 17.3327 9.70323 18.0049 10.4658 18.7193L10.4999 18.7512L10.5341 18.7193C11.2916 18.0127 12.0173 17.3502 12.6753 16.7497C12.7652 16.6675 12.854 16.5865 12.9413 16.5067L12.9076 16.4698L12.9413 16.5067L13.0096 16.4444C15.0508 14.5795 16.8168 12.9661 18.0126 11.4247L18.0126 11.4247C19.2602 9.81133 19.8236 8.36947 19.8236 6.75741C19.8236 5.23244 19.3447 3.83285 18.4703 2.817L18.4703 2.81694C17.6079 1.81833 16.4212 1.26723 15.1348 1.26723C14.1874 1.26723 13.319 1.58779 12.5558 2.22276C11.8765 2.78585 11.4013 3.4986 11.1249 3.99317C10.9896 4.23305 10.7596 4.37151 10.5 4.37151C10.2408 4.37151 10.0105 4.22907 9.87499 3.99299C9.59846 3.49378 9.12324 2.78567 8.44422 2.22276C7.68098 1.58779 6.81258 1.26723 5.86523 1.26723C4.57883 1.26723 3.39205 1.81832 2.53376 2.81703C1.65942 3.83288 1.18047 5.23246 1.18047 6.75741C1.18047 8.36939 1.73969 9.81126 2.9915 11.4247C4.19478 12.981 5.98753 14.6151 8.05392 16.4987L8.06133 16.5054L8.06405 16.5083Z" fill="white" stroke="#393939" stroke-width="0.1"/>
</svg>

<svg width="21" height="20" fill="none" xmlns="http://www.w3.org/2000/svg"><path d="m7.333 17.437-.003-.003c-2.117-1.929-3.939-3.594-5.207-5.232C.705 10.373.05 8.645.05 6.757c0-1.838.587-3.53 1.653-4.766C2.781.737 4.26.05 5.865.05c1.202 0 2.298.404 3.266 1.21.488.404.932.901 1.323 1.481l.042.062.041-.062a6.992 6.992 0 0 1 1.324-1.482C12.837.454 13.933.05 15.135.05c1.605 0 3.084.687 4.162 1.94 1.066 1.238 1.653 2.93 1.653 4.767 0 1.888-.655 3.617-2.073 5.445-1.268 1.638-3.09 3.303-5.207 5.232l-.152.138a189.63 189.63 0 0 0-2.24 2.067 1.135 1.135 0 0 1-.778.311c-.286 0-.561-.11-.778-.311a265.148 265.148 0 0 0-2.386-2.2l-.003-.002zm.731-.929.003.003.233.213c.667.609 1.403 1.28 2.166 1.995l.034.032.034-.032c.758-.706 1.483-1.369 2.141-1.97l.266-.242-.033-.037.033.037.069-.063c2.04-1.864 3.807-3.478 5.003-5.02 1.247-1.613 1.81-3.055 1.81-4.667 0-1.525-.478-2.924-1.353-3.94-.862-.999-2.049-1.55-3.335-1.55-.948 0-1.816.32-2.58.956-.678.563-1.154 1.276-1.43 1.77a.71.71 0 0 1-.625.379.719.719 0 0 1-.625-.379c-.277-.5-.752-1.207-1.43-1.77-.764-.635-1.632-.956-2.58-.956-1.286 0-2.473.551-3.331 1.55-.875 1.016-1.354 2.415-1.354 3.94 0 1.612.56 3.054 1.811 4.668 1.204 1.556 2.997 3.19 5.063 5.074l.007.006.003.003z" fill="#fff" stroke="#393939" stroke-width=".1"/></svg>
